dist/svg/static/content-activities-small.svg

<?xml version="1.0" encoding="UTF-8" standalone="no"?>
<svg width="24px" height="24px" viewBox="0 0 24 24" version="1.1" xmlns="http://www.w3.org/2000/svg" xmlns:xlink="http://www.w3.org/1999/xlink">
    <!-- Generator: sketchtool 46.2 (44496) - http://www.bohemiancoding.com/sketch -->
    <title>content-activities-small</title>
    <desc>Created with sketchtool.</desc>
    <defs></defs>
    <g id="icons-published" stroke="none" stroke-width="1" fill="none" fill-rule="evenodd">
        <g id="briefing" transform="translate(-932.000000, -410.000000)"></g>
        <g id="content-activities-small" stroke="#000000">
            <path d="M22.5,19.5 L5.5,19.5 C4.4,19.5 3.5,18.6 3.5,17.5 L3.5,13.5 L0.75,10.5 L3.5,7.5 L3.5,4.5 L20.5,4.5 C21.6,4.5 22.5,5.4 22.5,6.5 L22.5,19.5 Z M7,14.5 L19,14.5 L7,14.5 Z M7,9.5 L19,9.5 L7,9.5 Z" id="Shape"></path>
        </g>
    </g>
</svg>

<svg xmlns="http://www.w3.org/2000/svg" width="24" height="24" viewBox="0 0 24 24"><path d="M22.5 19.5h-17a2 2 0 0 1-2-2v-4l-3-3 3-3v-3h17a2 2 0 0 1 2 2v13zM7 14.5h12m-12-5h12" fill="none" stroke="currentColor" stroke-miterlimit="10"/></svg>
